X: 21172
T: Kathleen's Wedding
R: reel
M: 4/4
K: Dmajor
AG|:FEFA GFEF|D2 (3DDD DEGA|=cA (3AAA f2 ef|dcAF GBAG|
FGAF GFEF|D2 (3DDD DEGA|=c2 ec dcAB|=cAGE D4:|
f3 a ge e2|f2 ef dcAG|EG G2 =cAGc|Ad=cA G2 FG|
Adde f2 fg|afgf dcAB|=c2 ec dcAB|=cAGE D4:|

